icon-svg/tomorrowland.svg

<svg xmlns="http://www.w3.org/2000/svg" fill="#44739e" viewBox="0 0 24 24"><path d="M11.975 2c-.008.009-.292.292-.623.632a4.937 4.937 0 0 1-2.1 1.35A2.55 2.55 0 0 1 8 4.152a4.24 4.24 0 0 1-.833-.1c-.162-.048-.186-.033-.186.145a2.88 2.88 0 0 1-.436 1.2l-.195.292.2.25c.1.146.234.259.275.259a2.5 2.5 0 0 0 .493-.324 9.11 9.11 0 0 1 2.54-1.261A5.32 5.32 0 0 1 12 4.386a5.32 5.32 0 0 1 2.135.228 9.07 9.07 0 0 1 2.54 1.261 2.5 2.5 0 0 0 .494.325.74.74 0 0 0 .275-.252l.2-.258-.236-.373a3.52 3.52 0 0 1-.346-.817c-.09-.364-.138-.436-.259-.412-.089.017-.445.048-.809.064a2.7 2.7 0 0 1-1.173-.137 5.34 5.34 0 0 1-2.2-1.391c-.347-.348-.64-.632-.647-.624Zm-.237 2.773a2.1 2.1 0 0 0-.264.019A3.918 3.918 0 0 0 8.805 6.36l-.228.325.228.323a5.82 5.82 0 0 0 1.5 1.31A4.42 4.42 0 0 1 11.8 9.96c.081.2.161.365.193.357a1.9 1.9 0 0 0 .267-.46 4.08 4.08 0 0 1 1.44-1.539 6.24 6.24 0 0 0 1.5-1.31l.22-.316-.243-.356a3.687 3.687 0 0 0-1.933-1.383 6.55 6.55 0 0 0-1.5-.18M5.486 4.8l-.395.437A9.94 9.94 0 0 0 3.585 7.55a3.675 3.675 0 0 0 .446 3.738 8.15 8.15 0 0 0 3.413 2.379 2.46 2.46 0 0 1 .672.316c0 .024-.105.073-.242.1a3.15 3.15 0 0 0-1.383.979 1.2 1.2 0 0 0-.186.8c.008 1.125.808 2.105 2.361 2.9a6.1 6.1 0 0 0 1.076.461c.267 0 .924-.728 1.231-1.383a10.575 10.575 0 0 0 .76-4.927c-.065-1.893-.267-2.549-1.043-3.367a5.74 5.74 0 0 0-1.029-.806C7 7.1 5.721 5.948 5.536 5.033Zm13.029.079c-.03 0-.04.03-.042.091-.008.8-1.44 2.1-4.134 3.771a5.7 5.7 0 0 0-1.029.808c-.777.818-.979 1.474-1.044 3.367a10.6 10.6 0 0 0 .76 4.927c.309.655.964 1.383 1.231 1.383a5.6 5.6 0 0 0 1.059-.452c1.562-.793 2.37-1.781 2.379-2.9a1.217 1.217 0 0 0-.186-.8 3.15 3.15 0 0 0-1.384-.979c-.137-.032-.241-.081-.241-.1a2.46 2.46 0 0 1 .671-.316 8.157 8.157 0 0 0 3.414-2.379 3.675 3.675 0 0 0 .446-3.738 9.52 9.52 0 0 0-1.523-2.322c-.222-.243-.327-.346-.377-.35m-6.662.444h.228a2.686 2.686 0 0 1 1.237.243 4.255 4.255 0 0 1 1.351 1.125 6.2 6.2 0 0 1-1.455 1.091A1.952 1.952 0 0 1 12 8.019a1.96 1.96 0 0 1-1.335-.308 5.9 5.9 0 0 1-.965-.654l-.4-.349.2-.241a3.62 3.62 0 0 1 1.342-.967 2.05 2.05 0 0 1 1.011-.181m.157.158a1.13 1.13 0 0 0-.577.145 1.2 1.2 0 1 0 1.166.032 1.25 1.25 0 0 0-.589-.177m-.235.529a.356.356 0 0 1 .322.239c.179.38-.4.817-.639.493-.187-.234-.187-.388.008-.583a.456.456 0 0 1 .309-.15zm-8.286 5.387a4.5 4.5 0 0 0-.065 1.075 7.63 7.63 0 0 0 1.982 5.39 15.27 15.27 0 0 0 5.882 3.875l.7.267.673-.267c3.471-1.375 6.18-3.616 7.264-6.019a6.4 6.4 0 0 0 .623-2.9 8.8 8.8 0 0 0-.008-1.326c-.041-.106-.113-.065-.363.217-.3.34-.309.381-.356 1.085a7.965 7.965 0 0 1-6.109 7.135 10.02 10.02 0 0 1-3.608-.039 7.915 7.915 0 0 1-5.931-7.1c-.049-.688-.065-.745-.332-1.052a2.04 2.04 0 0 0-.355-.348"/></svg>

<?xml version="1.0" encoding="UTF-8"?>
<svg width="24px" fill="#44739e" height="24px" viewBox="0 0 24 24" version="1.1" xmlns="http://www.w3.org/2000/svg" xmlns:xlink="http://www.w3.org/1999/xlink">
            <path d="M 11.975,2 C 11.967,2.009 11.683,2.292 11.352,2.632 A 4.937,4.937 0 0 1 9.252,3.982 2.553,2.553 0 0 1 8,4.152 4.243,4.243 0 0 1 7.167,4.052 C 7.005,4.004 6.981,4.019 6.981,4.197 a 2.882,2.882 0 0 1 -0.436,1.2 l -0.195,0.292 0.2,0.25 c 0.1,0.146 0.234,0.259 0.275,0.259 A 2.489,2.489 0 0 0 7.318,5.874 9.112,9.112 0 0 1 9.858,4.613 5.321,5.321 0 0 1 12,4.386 5.318,5.318 0 0 1 14.135,4.614 9.071,9.071 0 0 1 16.675,5.875 2.509,2.509 0 0 0 17.169,6.2 0.742,0.742 0 0 0 17.444,5.948 L 17.644,5.69 17.408,5.317 A 3.52,3.52 0 0 1 17.062,4.5 C 16.972,4.136 16.924,4.064 16.803,4.088 16.714,4.105 16.358,4.136 15.994,4.152 A 2.7,2.7 0 0 1 14.821,4.015 5.34,5.34 0 0 1 12.621,2.624 C 12.274,2.276 11.981,1.992 11.974,2 Z M 11.738,4.773 A 2.117,2.117 0 0 0 11.474,4.792 3.918,3.918 0 0 0 8.805,6.36 L 8.577,6.685 8.805,7.008 a 5.821,5.821 0 0 0 1.5,1.31 4.422,4.422 0 0 1 1.495,1.642 c 0.081,0.2 0.161,0.365 0.193,0.357 A 1.9,1.9 0 0 0 12.26,9.857 4.081,4.081 0 0 1 13.7,8.318 6.244,6.244 0 0 0 15.2,7.008 L 15.42,6.692 15.177,6.336 a 3.687,3.687 0 0 0 -1.933,-1.383 6.552,6.552 0 0 0 -1.5,-0.18 M 5.486,4.8 5.091,5.237 a 9.935,9.935 0 0 0 -1.506,2.313 3.675,3.675 0 0 0 0.446,3.738 8.151,8.151 0 0 0 3.413,2.379 2.456,2.456 0 0 1 0.672,0.316 c 0,0.024 -0.105,0.073 -0.242,0.1 a 3.149,3.149 0 0 0 -1.383,0.979 1.2,1.2 0 0 0 -0.186,0.8 c 0.008,1.125 0.808,2.105 2.361,2.9 a 6.1,6.1 0 0 0 1.076,0.461 c 0.267,0 0.924,-0.728 1.231,-1.383 a 10.575,10.575 0 0 0 0.76,-4.927 C 11.668,11.02 11.466,10.364 10.69,9.546 A 5.735,5.735 0 0 0 9.661,8.74 C 7,7.1 5.721,5.948 5.536,5.033 Z m 13.029,0.079 c -0.03,0 -0.04,0.03 -0.042,0.091 -0.008,0.8 -1.44,2.1 -4.134,3.771 A 5.7,5.7 0 0 0 13.31,9.549 c -0.777,0.818 -0.979,1.474 -1.044,3.367 a 10.6,10.6 0 0 0 0.76,4.927 c 0.309,0.655 0.964,1.383 1.231,1.383 a 5.6,5.6 0 0 0 1.059,-0.452 c 1.562,-0.793 2.37,-1.781 2.379,-2.9 a 1.217,1.217 0 0 0 -0.186,-0.8 3.152,3.152 0 0 0 -1.384,-0.979 c -0.137,-0.032 -0.241,-0.081 -0.241,-0.1 A 2.459,2.459 0 0 1 16.555,13.679 8.157,8.157 0 0 0 19.969,11.3 3.675,3.675 0 0 0 20.415,7.562 9.517,9.517 0 0 0 18.892,5.24 C 18.67,4.997 18.565,4.894 18.515,4.89 m -6.662,0.444 h 0.228 A 2.686,2.686 0 0 1 13.318,5.577 4.255,4.255 0 0 1 14.669,6.702 6.2,6.2 0 0 1 13.214,7.793 1.952,1.952 0 0 1 12,8.019 1.96,1.96 0 0 1 10.665,7.711 5.881,5.881 0 0 1 9.7,7.057 L 9.3,6.708 9.5,6.467 A 3.622,3.622 0 0 1 10.842,5.5 2.053,2.053 0 0 1 11.853,5.319 M 12.01,5.477 A 1.131,1.131 0 0 0 11.433,5.622 1.2,1.2 0 1 0 12.599,5.654 1.253,1.253 0 0 0 12.01,5.477 m -0.235,0.529 a 0.356,0.356 0 0 1 0.322,0.239 c 0.179,0.38 -0.4,0.817 -0.639,0.493 C 11.271,6.504 11.271,6.35 11.466,6.155 a 0.456,0.456 0 0 1 0.309,-0.15 z m -8.286,5.387 a 4.486,4.486 0 0 0 -0.065,1.075 7.631,7.631 0 0 0 1.982,5.39 15.268,15.268 0 0 0 5.882,3.875 l 0.7,0.267 0.673,-0.267 c 3.471,-1.375 6.18,-3.616 7.264,-6.019 a 6.4,6.4 0 0 0 0.623,-2.9 8.792,8.792 0 0 0 -0.008,-1.326 c -0.041,-0.106 -0.113,-0.065 -0.363,0.217 -0.3,0.34 -0.309,0.381 -0.356,1.085 a 7.965,7.965 0 0 1 -6.109,7.135 10.017,10.017 0 0 1 -3.608,-0.039 7.915,7.915 0 0 1 -5.931,-7.1 C 4.124,12.098 4.108,12.041 3.841,11.734 A 2.038,2.038 0 0 0 3.486,11.386"/>

</svg>
